X:1
T:Title
%%score { ( 1 3 ) | 2 }
L:1/8
Q:1/4=108
M:3/4
K:G
V:1 treble nm="Grand Piano"
V:3 treble 
V:2 bass 
V:1
 D2 D2 E2 | D2 G2 G2 | B2 A2 G2 | [FA]4 z2 | [Fd]2 [Fd]2 [Fd]2 | [FA]2 [GB]2 [Ac]2 | [GB]6- | %7
w: John~R.~Sweney * *|||||||
 [GB]4 z2 | D2 D2 E2 | D2 G2 G2 | B2 A2 G2 | [FA]4 z2 | [Fd]2 [Fd]2 [Fd]2 | [FA]2 [FB]2 [FA]2 | %14
w: |||||||
 G6- | G4 z2 | [EG]2 [EG]2 [EG]2 | [EGc]6 | B2 B2 B2 | d6 | [Fd]2 [FA]2 [GB]2 | [Ac]2 [ce]2 [Bd]2 | %22
w: ||||||||
 [GB]6- | [GB]6 | D2 D2 E2 | D2 G2 G2 | B2 A2 G2 | [FA]4 z2 | [Fd]2 [Fd]2 [Fd]2 | %29
w: |||||||
 [FA]2 [FB]2 [FA]2 | G6- |[M:7/4] G4 z2 z2 z2 z4 |] %32
w: |||
V:2
 [G,B,]2 [G,B,]2 [G,C]2 | [G,B,]2 [G,B,D]2[K:treble] [G,B,D]2 | [G,DG]2[K:bass] [G,CD]2 [G,B,D]2 | %3
 [D,D]4 z2 | [D,A,]2 [D,A,]2 [D,A,]2 | [D,D]2 [D,D]2 [D,D]2 | [G,D]2 G,2 G,2 | G,4 z2 | %8
 [G,B,]2 [G,B,]2 [G,C]2 | [G,B,]2 [G,B,D]2[K:treble] [G,B,D]2 | [G,DG]2[K:bass] [G,CD]2 [G,B,D]2 | %11
 [D,D]4 z2 | [D,A,]2 [D,A,]2 [D,A,]2 | [D,C]2 [D,D]2 [D,C]2 | [G,B,]2 [G,B,]2 [G,C]2 | [G,B,]4 z2 | %16
 [C,C]2 [C,C]2 [C,C]2 | C,6 | [G,DG]2 [G,DG]2 [G,DG]2 | [G,B,G]6 | [D,A,]2 [D,D]2 [D,D]2 | %21
 [D,D]2 [D,D]2 [D,D]2 | [G,D]2 G,2 G,2 | G,6 | [G,B,]2 [G,B,]2 [G,C]2 | %25
 [G,B,]2[K:treble] [G,B,D]2 [G,B,D]2 | [G,DG]2 [G,CD]2 [G,B,D]2 | [D,D]4 z2 | %28
 [D,A,]2 [D,A,]2 [D,A,]2 | [D,C]2 [D,D]2 [D,C]2 | [G,B,]2 [G,B,]2 [G,C]2 | %31
[M:7/4] [G,B,]4 z2 z2 z2 z4 |] %32
V:3
 x6 | x6 | x6 | x6 | x6 | x6 | z2 D2 D2 | D4 z2 | x6 | x6 | x6 | x6 | x6 | x6 | z2 D2 E2 | D4 z2 | %16
 x6 | x6 | x6 | x6 | x6 | x6 | z2 D2 D2 | D6 | x6 | x6 | x6 | x6 | x6 | x6 | z2 D2 E2 | %31
[M:7/4] D4 z2 z2 z2 z4 |] %32

